icons/file-forbid-line.svg

<svg xmlns="http://www.w3.org/2000/svg" width="24" height="24" fill="none"><g clip-path="url(#a)"><g><path fill="#121212" d="M11.29 20C11.505 20.722 11.833 21.396 12.255 22H3.993C3.73038 21.9982 3.47902 21.8931 3.29322 21.7075C3.10742 21.5219 3.00209 21.2706 3 21.008V2.992C3 2.444 3.447 2 3.999 2H16L21 7V11.674C20.3675 11.3734 19.6932 11.1701 19 11.071V8H15V4H5V20H11.29ZM18 23C16.6739 23 15.4021 22.4732 14.4645 21.5355C13.5268 20.5979 13 19.3261 13 18C13 16.6739 13.5268 15.4021 14.4645 14.4645C15.4021 13.5268 16.6739 13 18 13C19.3261 13 20.5979 13.5268 21.5355 14.4645C22.4732 15.4021 23 16.6739 23 18C23 19.3261 22.4732 20.5979 21.5355 21.5355C20.5979 22.4732 19.3261 23 18 23ZM16.707 20.708C17.267 20.9759 17.8962 21.0635 18.5081 20.9588C19.1199 20.854 19.6842 20.5621 20.1231 20.1231C20.5621 19.6842 20.854 19.1199 20.9588 18.5081C21.0635 17.8962 20.9759 17.267 20.708 16.707L16.707 20.707V20.708ZM15.292 19.293L19.293 15.293C18.733 15.0251 18.1038 14.9375 17.4919 15.0422C16.8801 15.147 16.3158 15.4389 15.8769 15.8779C15.4379 16.3168 15.146 16.8811 15.0412 17.4929C14.9365 18.1048 15.0241 18.734 15.292 19.294V19.293Z"/></g></g><defs><clipPath id="a"><rect width="24" height="24" fill="white"/></clipPath></defs></svg>

<svg width="24" height="24" fill="none" xmlns="http://www.w3.org/2000/svg"><g clip-path="url(#a)"><path d="M11.29 20a6.96 6.96 0 0 0 .965 2H3.993A1 1 0 0 1 3 21.008V2.992C3 2.444 3.447 2 3.999 2H16l5 5v4.674a6.951 6.951 0 0 0-2-.603V8h-4V4H5v16h6.29ZM18 23a5 5 0 1 1 0-10 5 5 0 0 1 0 10Zm-1.293-2.292a3 3 0 0 0 4.001-4.001l-4.001 4v.001Zm-1.415-1.415 4.001-4a3 3 0 0 0-4.001 4.001v-.001Z" /></g><defs><clipPath id="a"><path fill="#fff" d="M0 0h24v24H0z"/></clipPath></defs></svg>
